X:1
T:hngi dar rakoutchk
T:setr 55
L:1/8
Q:1/4=120
M:6/8
K:F
A/B/AG A/B/AG | A/B/Ac A3 | G/A/GF G/A/GB |1 AGF A3 :|2 AGF D3 |
D/E/D/C D/E/FG | AGF A3 B/A/GF A/G/FE |1 DEF GFE :|2 DEF D3 |]
